X:2017
L:1/8
M:2/4
K:Emin
 G | EGGB cBcd | BGGA G3 B/G/ | EAAB | cBcd | edcd | e3 || g | edcd | efge | dcBc | d2 cde | ecdB | 
 cABe | EAAB | G3 ||

